X: 43489
T: Yellow Tinker, The
R: reel
M: 4/4
K: Gdorian
|:DGGF DFCF|DG ~G2 eGdG|DGGF DCDE|~F2 DF AdcA:|
~G2dG eGdG|eGdG cAFA|~G2dG eGdG|~c2 AF DFAF|
~G2dG eGdG|eGdG cAFA|dcde f3d|~c2 AF DFAF||

